X:7872
T:Walled Garden Waltz
M:3/4
L:1/8
C:Andy Cutting
R:Waltz
K:G
"G"D2G3G|"Bm"ABG2AB|"C"cB AB AG|"D"FG EF D2|
"G"D2G3G|"Bm"ABG2AB|"C"cB AB AG|1"D"A6:|2"D"A4Bc||
|:"G"d2B2d2|"C"ed cd cB|"Am"cB AB AG|"D"FG EFD2|
"G"d2B2d2|"C"ed cd cB|cB AB AG|1"D"A4Bc:|2"D"A6|]
